src/assets/icons/svg/lamp.svg

<svg width="20" height="24" viewBox="0 0 20 24" fill="none" xmlns="http://www.w3.org/2000/svg">
<path d="M16.4867 2.63756C14.7715 0.935016 12.5021 0 10.0892 0C10.0687 0 10.0477 4.6875e-05 10.0271 0.0001875C10.0061 4.6875e-05 9.98561 0 9.9647 0C7.53466 0 5.24594 0.944531 3.51367 2.66395C1.78698 4.37798 0.835938 6.64931 0.835938 9.05944C0.835938 12.6853 2.91747 14.6388 4.43739 16.0651C5.48856 17.0516 6.13281 17.6933 6.13281 18.4219V21.1875C6.13281 22.7383 7.3945 24 8.94531 24H11.0547C12.6055 24 13.8672 22.7383 13.8672 21.1875V18.3281C13.8672 18.2909 13.865 18.2541 13.8608 18.218C13.9532 17.6652 14.4207 17.1262 15.2104 16.375C15.5856 16.0181 15.6005 15.4247 15.2436 15.0495C14.8868 14.6744 14.2934 14.6595 13.9182 15.0164C13.1437 15.7531 12.4289 16.5004 12.124 17.4375H10.9141V9.48206L11.8516 8.54456L13.0637 9.75666C13.2467 9.9397 13.4866 10.0312 13.7266 10.0312C13.9665 10.0312 14.2064 9.9397 14.3895 9.75666C14.7556 9.39052 14.7556 8.79694 14.3895 8.43084L12.5145 6.55584C12.1483 6.1897 11.5548 6.1897 11.1887 6.55584L9.97656 7.76794L8.76447 6.55584C8.39833 6.1897 7.80475 6.1897 7.43866 6.55584L5.56366 8.43084C5.19752 8.79698 5.19752 9.39056 5.56366 9.75666C5.9298 10.1228 6.52338 10.1228 6.88947 9.75666L8.10156 8.54456L9.03906 9.48206V17.4375H7.85289C7.50775 16.3753 6.63377 15.555 5.72045 14.6979C4.24094 13.3094 2.71094 11.8735 2.71094 9.05939C2.71094 7.15275 3.46516 5.35402 4.83461 3.99464C6.21292 2.62645 8.03298 1.875 9.96508 1.875C9.98341 1.875 10.0018 1.87505 10.0202 1.87519C10.0248 1.87523 10.0294 1.87523 10.034 1.87519C10.0523 1.87505 10.0705 1.875 10.0888 1.875C12.0034 1.875 13.8046 2.61717 15.1657 3.9683C16.4881 5.28094 17.2367 7.01222 17.2864 8.86219C17.2728 8.92575 17.2657 8.9918 17.2657 9.05944C17.2657 10.1438 17.0478 11.0858 16.5997 11.9393C16.359 12.3977 16.5355 12.9645 16.9939 13.2052C17.4523 13.4459 18.0191 13.2694 18.2598 12.8109C18.8212 11.7416 19.1094 10.5841 19.1382 9.279C19.1551 9.20859 19.1641 9.13505 19.1641 9.05944C19.1641 6.63211 18.2132 4.35145 16.4867 2.63756ZM8.00781 19.3125H11.9922V21.1875C11.9922 21.7044 11.5716 22.125 11.0547 22.125H8.94531C8.42838 22.125 8.00781 21.7044 8.00781 21.1875V19.3125Z" fill="black"/>
</svg>

<?xml version="1.0" encoding="iso-8859-1"?>
<!-- Generator: Adobe Illustrator 23.1.0, SVG Export Plug-In . SVG Version: 6.00 Build 0)  -->
<svg version="1.1" id="&#x421;&#x43B;&#x43E;&#x439;_1"
	 xmlns="http://www.w3.org/2000/svg" xmlns:xlink="http://www.w3.org/1999/xlink" x="0px" y="0px" viewBox="0 0 20 24"
	 style="enable-background:new 0 0 20 24;" xml:space="preserve">
<path d="M16.487,2.638C14.771,0.935,12.502,0,10.089,0c-0.021,0-0.042,0-0.062,0c-0.021,0-0.041,0-0.062,0
	c-2.43,0-4.719,0.945-6.451,2.664C1.787,4.378,0.836,6.649,0.836,9.059c0,3.626,2.082,5.579,3.601,7.006
	c1.051,0.986,1.695,1.628,1.695,2.357v2.766C6.133,22.738,7.394,24,8.945,24h2.109c1.551,0,2.813-1.262,2.813-2.813v-2.859
	c0-0.037-0.002-0.074-0.006-0.11c0.092-0.553,0.56-1.092,1.35-1.843c0.375-0.357,0.39-0.95,0.033-1.325
	c-0.357-0.375-0.95-0.39-1.325-0.033c-0.774,0.737-1.489,1.484-1.794,2.421h-1.21V9.482l0.938-0.938l1.212,1.212
	c0.183,0.183,0.423,0.275,0.663,0.275c0.24,0,0.48-0.092,0.663-0.275c0.366-0.366,0.366-0.96,0-1.326l-1.875-1.875
	c-0.366-0.366-0.96-0.366-1.326,0L9.977,7.768L8.764,6.556c-0.366-0.366-0.96-0.366-1.326,0L5.564,8.431
	c-0.366,0.366-0.366,0.96,0,1.326c0.366,0.366,0.96,0.366,1.326,0l1.212-1.212l0.938,0.938v7.955H7.853
	c-0.345-1.062-1.219-1.882-2.132-2.74c-1.48-1.389-3.01-2.824-3.01-5.639c0-1.907,0.754-3.705,2.124-5.065
	c1.378-1.368,3.198-2.12,5.13-2.12c0.018,0,0.037,0,0.055,0c0.005,0,0.009,0,0.014,0c0.018,0,0.036,0,0.055,0
	c1.915,0,3.716,0.742,5.077,2.093c1.322,1.313,2.071,3.044,2.121,4.894c-0.014,0.064-0.021,0.13-0.021,0.197
	c0,1.084-0.218,2.026-0.666,2.88c-0.241,0.458-0.064,1.025,0.394,1.266c0.458,0.241,1.025,0.064,1.266-0.394
	c0.561-1.069,0.85-2.227,0.878-3.532c0.017-0.07,0.026-0.144,0.026-0.22C19.164,6.632,18.213,4.351,16.487,2.638z M8.008,19.313
	h3.984v1.875c0,0.517-0.421,0.938-0.938,0.938H8.945c-0.517,0-0.938-0.421-0.938-0.938V19.313z"/>
</svg>
